src/images/icons/rate/3.5.svg

<svg width="119" height="20" viewBox="0 0 119 20" xmlns="http://www.w3.org/2000/svg" xmlns:xlink="http://www.w3.org/1999/xlink"><title>ollie_BubbleRating_3.5_119x20</title><defs><path id="a" d="M33.122 17.16V.578H0v16.58z"/></defs><g fill="none" fill-rule="evenodd"><path d="M16.5.2c-3.7 0-7.1.9-9.8 2.6H0L1.6 5c.2.3.7 1 .9 1.7C1.7 8 1.3 9.5 1.3 11c0 4.6 3.7 8.3 8.3 8.3 1.9 0 3.7-.7 5.2-1.8l.5.8 1.1 1.7 1.1-1.7.5-.8c.5.4 1.1.8 1.7 1.1 1.1.5 2.3.8 3.5.8 1 0 1.9-.2 2.9-.5 4.3-1.6 6.5-6.4 4.9-10.6-.2-.5-.4-1-.7-1.5.3-.7.8-1.5.9-1.7l1.6-2.2h-6.9C23.3 1 20 .2 16.5.2m0 1.3c3.5 0 6.6.9 9.2 2.6h4.6s-1 1.4-1.4 2.8c.4.5.7 1.1.9 1.7 1.3 3.6-.5 7.5-4.1 8.9-.8.3-1.6.4-2.4.4-1 0-2-.2-2.9-.6-1-.5-1.9-1.1-2.5-2l-1.5 2.2-1.5-2.2c-1.3 1.6-3.2 2.6-5.4 2.6-3.8 0-6.9-3.1-6.9-6.9 0-1.5.5-2.9 1.3-4.1-.2-1.4-1.2-2.8-1.2-2.8H7c2.6-1.7 5.9-2.6 9.5-2.6" fill="#FFF"/><path d="M7.5 4.7c2.6-.3 9.9-.6 7.9 10l2.3-.2c-1-6.5 1.1-9.9 7.6-10.2-10.8-5.9-17 .3-17.8.4" fill="#FCDD8E"/><path d="M17.6 13.1c1.2 3.2 4.8 4.9 8 3.7 3.2-1.2 4.9-4.8 3.7-8-1.2-3.2-4.8-4.9-8-3.7-3.3 1.2-4.9 4.8-3.7 8M15.8 10.9c0 3.4-2.8 6.2-6.2 6.2-3.4 0-6.2-2.8-6.2-6.2 0-3.4 2.8-6.2 6.2-6.2 3.5 0 6.2 2.8 6.2 6.2" fill="#FFF"/><path d="M10.7 10.8c0 .6-.5 1.1-1.1 1.1-.6 0-1.1-.5-1.1-1.1 0-.6.5-1.1 1.1-1.1.6 0 1.1.5 1.1 1.1" fill="#A82735"/><path d="M24.5 10.8c0 .6-.5 1.1-1.1 1.1-.6 0-1.1-.5-1.1-1.1 0-.6.5-1.1 1.1-1.1.6 0 1.1.5 1.1 1.1" fill="#528C40"/><path d="M25.3 16.1c-1.4.5-2.9.4-4.2-.2-1.3-.6-2.4-1.7-2.9-3.1-.5-1.4-.5-2.9.2-4.2.6-1.3 1.7-2.4 3.1-2.9 2.8-1.1 6 .4 7.1 3.3 1 2.9-.4 6.1-3.3 7.1m-15.7.3c-3 0-5.5-2.5-5.5-5.5s2.5-5.5 5.5-5.5 5.5 2.5 5.5 5.5-2.4 5.5-5.5 5.5M23.2 4c-.7 0-1.5.2-2.2.4-1.7.7-3.1 2-3.9 3.6-.4.8-.5 1.6-.6 2.4-.2-3.5-3.2-6.3-6.7-6.4 2-.8 4.2-1.3 6.7-1.3s4.7.5 6.7 1.3m5.7 2.8c.4-1.4 1.4-2.7 1.4-2.7h-4.6c-2.6-1.7-5.7-2.6-9.2-2.6-3.6 0-6.9.9-9.5 2.6H2.7s1 1.4 1.4 2.7c-.8 1.1-1.3 2.6-1.3 4.1 0 3.8 3.1 6.9 6.9 6.9 2.2 0 4.1-1 5.4-2.6l1.5 2.2 1.5-2.2c.7.8 1.5 1.5 2.5 2 1.7.8 3.5.9 5.3.2 3.5-1.3 5.3-5.3 4-8.9-.3-.6-.6-1.2-1-1.7" fill="#0A0A08"/><path d="M9.5 13.1c-1.2 0-2.2-1-2.2-2.2 0-1.2 1-2.2 2.2-2.2 1.2 0 2.2 1 2.2 2.2.1 1.2-.9 2.2-2.2 2.2m0-5.7c-1.9 0-3.4 1.5-3.4 3.4s1.5 3.4 3.4 3.4 3.4-1.5 3.4-3.4C13 9 11.4 7.4 9.5 7.4M23.4 13.1c-1.2 0-2.2-1-2.2-2.2 0-1.2 1-2.2 2.2-2.2 1.2 0 2.2 1 2.2 2.2 0 1.2-1 2.2-2.2 2.2m0-5.7c-1.9 0-3.4 1.5-3.4 3.4s1.5 3.4 3.4 3.4 3.4-1.5 3.4-3.4c0-1.8-1.5-3.4-3.4-3.4" fill="#0A0A08"/><path d="M43.5 3.5a7.5 7.5 0 1 1 0 15 7.5 7.5 0 0 1 0-15M60.4 3.5a7.5 7.5 0 1 1 0 15 7.5 7.5 0 0 1 0-15M76.5 3.5a7.5 7.5 0 1 1 0 15 7.5 7.5 0 0 1 0-15M93 3.5a7.5 7.5 0 1 1 0 15 7.5 7.5 0 0 1 0-15M109.9 3.5a7.5 7.5 0 1 1 0 15 7.5 7.5 0 0 1 0-15" fill="#FFF"/><g transform="translate(85 2)"><mask id="b" fill="#fff"><use xlink:href="#a"/></mask><path d="M5.6 14.9c-1.6-.7-2.8-2.1-3.4-3.7-.6-1.7-.5-3.5.2-5.1.7-1.6 2.1-2.8 3.7-3.4 3.4-1.3 7.2.5 8.5 3.9 1.3 3.4-.5 7.2-3.9 8.5-1.7.6-3.5.5-5.1-.2zM5.5 1.1C3.4 1.9 1.8 3.4.8 5.4.3 6.5 0 7.7 0 8.9c0 1 .2 1.9.5 2.9.8 2.1 2.3 3.7 4.3 4.6 2 .9 4.3 1 6.3.3 4.3-1.6 6.5-6.4 4.9-10.6-1.4-4.4-6.2-6.6-10.5-5z" fill="#5D9A50" mask="url(#b)"/><path d="M22.2 14.9c-1.6-.7-2.8-2.1-3.4-3.7-.6-1.7-.5-3.5.2-5.1.7-1.6 2.1-2.8 3.7-3.4 3.4-1.3 7.2.5 8.5 3.9 1.3 3.4-.5 7.2-3.9 8.5-1.7.6-3.5.5-5.1-.2zm-.1-13.8c-2.1.8-3.7 2.3-4.7 4.3-.5 1.1-.8 2.3-.8 3.5 0 1 .2 1.9.5 2.9.8 2.1 2.3 3.7 4.3 4.6 2 .9 4.3 1 6.3.3 4.3-1.6 6.5-6.4 4.9-10.6-1.5-4.4-6.2-6.6-10.5-5z" fill="#5D9A50" mask="url(#b)"/></g><path d="M57.6 16.9c-1.6-.7-2.8-2.1-3.4-3.7-.6-1.7-.5-3.5.2-5.1.7-1.6 2.1-2.8 3.7-3.4 3.4-1.3 7.2.5 8.5 3.9 1.3 3.4-.5 7.2-3.9 8.5-1.7.6-3.5.5-5.1-.2zm-.1-13.8c-2.1.8-3.7 2.3-4.7 4.3-.5 1.1-.8 2.3-.8 3.5 0 1 .2 1.9.5 2.9.8 2.1 2.3 3.7 4.3 4.6 2 .9 4.3 1 6.3.3 4.3-1.6 6.5-6.4 4.9-10.6-1.5-4.4-6.3-6.6-10.5-5z" fill="#5D9A50"/><path d="M37.2 10.8c0-3.6 3-6.6 6.6-6.6 3.6 0 6.6 3 6.6 6.6 0 3.6-3 6.6-6.6 6.6-3.6 0-6.6-2.9-6.6-6.6m-1.6 0c0 4.6 3.7 8.3 8.3 8.3 4.6 0 8.3-3.7 8.3-8.3 0-4.6-3.7-8.3-8.3-8.3-4.6.1-8.3 3.8-8.3 8.3" fill="#5D9A50"/><path d="M39.6 10.8c0 2.3 1.8 4.1 4.1 4.1s4.1-1.8 4.1-4.1-1.8-4.1-4.1-4.1c-2.2 0-4.1 1.8-4.1 4.1M56.2 10.8c0 2.3 1.8 4.1 4.1 4.1s4.1-1.8 4.1-4.1-1.8-4.1-4.1-4.1c-2.2 0-4.1 1.8-4.1 4.1M70.3 10.8c0-3.6 3-6.6 6.6-6.6 3.6 0 6.6 3 6.6 6.6 0 3.6-3 6.6-6.6 6.6-3.6 0-6.6-2.9-6.6-6.6m-1.7 0c0 4.6 3.7 8.3 8.3 8.3 4.6 0 8.3-3.7 8.3-8.3 0-4.6-3.7-8.3-8.3-8.3-4.6.1-8.3 3.8-8.3 8.3" fill="#5D9A50"/><path d="M72.7 10.8c0 2.3 1.8 4.1 4.1 4.1s4.1-1.8 4.1-4.1-1.8-4.1-4.1-4.1-4.1 1.8-4.1 4.1M89.3 10.9c0-2.3 1.8-4.1 4.1-4.1V15c-2.3 0-4.1-1.9-4.1-4.1" fill="#5D9A50"/></g></svg>

<?xml version="1.0" encoding="UTF-8"?>
<svg width="119px" height="20px" viewBox="0 0 119 20" version="1.1" xmlns="http://www.w3.org/2000/svg" xmlns:xlink="http://www.w3.org/1999/xlink">
    <!-- Generator: Sketch 42 (36781) - http://www.bohemiancoding.com/sketch -->
    <title>ollie_BubbleRating_3.5_119x20</title>
    <desc>Created with Sketch.</desc>
    <defs>
        <polygon id="path-1" points="33.122 17.159375 33.122 0.578716762 0 0.578716762 0 17.159375"></polygon>
    </defs>
    <g id="Page-1" stroke="none" stroke-width="1" fill="none" fill-rule="evenodd">
        <g id="ollie_BubbleRating_3.5_119x20">
            <g id="Group-4">
                <path d="M16.5,0.2 C12.8,0.2 9.4,1.1 6.7,2.8 L0,2.8 L1.6,5 C1.8,5.3 2.3,6 2.5,6.7 C1.7,8 1.3,9.5 1.3,11 C1.3,15.6 5,19.3 9.6,19.3 C11.5,19.3 13.3,18.6 14.8,17.5 L15.3,18.3 L16.4,20 L17.5,18.3 L18,17.5 C18.5,17.9 19.1,18.3 19.7,18.6 C20.8,19.1 22,19.4 23.2,19.4 C24.2,19.4 25.1,19.2 26.1,18.9 C30.4,17.3 32.6,12.5 31,8.3 C30.8,7.8 30.6,7.3 30.3,6.8 C30.6,6.1 31.1,5.3 31.2,5.1 L32.8,2.9 L25.9,2.9 C23.3,1 20,0.2 16.5,0.2 M16.5,1.5 C20,1.5 23.1,2.4 25.7,4.1 L30.3,4.1 C30.3,4.1 29.3,5.5 28.9,6.9 C29.3,7.4 29.6,8 29.8,8.6 C31.1,12.2 29.3,16.1 25.7,17.5 C24.9,17.8 24.1,17.9 23.3,17.9 C22.3,17.9 21.3,17.7 20.4,17.3 C19.4,16.8 18.5,16.2 17.9,15.3 L16.4,17.5 L14.9,15.3 C13.6,16.9 11.7,17.9 9.5,17.9 C5.7,17.9 2.6,14.8 2.6,11 C2.6,9.5 3.1,8.1 3.9,6.9 C3.7,5.5 2.7,4.1 2.7,4.1 L7,4.1 C9.6,2.4 12.9,1.5 16.5,1.5" id="Fill-1" fill="#FFFFFF"></path>
                <path d="M7.5,4.7 C10.1,4.4 17.4,4.1 15.4,14.7 L17.7,14.5 C16.7,8 18.8,4.6 25.3,4.3 C14.5,-1.6 8.3,4.6 7.5,4.7" id="Fill-3" fill="#FCDD8E"></path>
            </g>
            <path d="M17.6,13.1 C18.8,16.3 22.4,18 25.6,16.8 C28.8,15.6 30.5,12 29.3,8.8 C28.1,5.6 24.5,3.9 21.3,5.1 C18,6.3 16.4,9.9 17.6,13.1" id="Fill-5" fill="#FFFFFF"></path>
            <path d="M15.8,10.9 C15.8,14.3 13,17.1 9.6,17.1 C6.2,17.1 3.4,14.3 3.4,10.9 C3.4,7.5 6.2,4.7 9.6,4.7 C13.1,4.7 15.8,7.5 15.8,10.9" id="Fill-6" fill="#FFFFFF"></path>
            <path d="M10.7,10.8 C10.7,11.4 10.2,11.9 9.6,11.9 C9,11.9 8.5,11.4 8.5,10.8 C8.5,10.2 9,9.7 9.6,9.7 C10.2,9.7 10.7,10.2 10.7,10.8" id="Fill-7" fill="#A82735"></path>
            <path d="M24.5,10.8 C24.5,11.4 24,11.9 23.4,11.9 C22.8,11.9 22.3,11.4 22.3,10.8 C22.3,10.2 22.8,9.7 23.4,9.7 C24,9.7 24.5,10.2 24.5,10.8" id="Fill-8" fill="#528C40"></path>
            <path d="M25.3,16.1 C23.9,16.6 22.4,16.5 21.1,15.9 C19.8,15.3 18.7,14.2 18.2,12.8 C17.7,11.4 17.7,9.9 18.4,8.6 C19,7.3 20.1,6.2 21.5,5.7 C24.3,4.6 27.5,6.1 28.6,9 C29.6,11.9 28.2,15.1 25.3,16.1 M9.6,16.4 C6.6,16.4 4.1,13.9 4.1,10.9 C4.1,7.9 6.6,5.4 9.6,5.4 C12.6,5.4 15.1,7.9 15.1,10.9 C15.1,13.9 12.7,16.4 9.6,16.4 M23.2,4 C22.5,4 21.7,4.2 21,4.4 C19.3,5.1 17.9,6.4 17.1,8 C16.7,8.8 16.6,9.6 16.5,10.4 C16.3,6.9 13.3,4.1 9.8,4 C11.8,3.2 14,2.7 16.5,2.7 C19,2.7 21.2,3.2 23.2,4 M28.9,6.8 C29.3,5.4 30.3,4.1 30.3,4.1 L25.7,4.1 C23.1,2.4 20,1.5 16.5,1.5 C12.9,1.5 9.6,2.4 7,4.1 L2.7,4.1 C2.7,4.1 3.7,5.5 4.1,6.8 C3.3,7.9 2.8,9.4 2.8,10.9 C2.8,14.7 5.9,17.8 9.7,17.8 C11.9,17.8 13.8,16.8 15.1,15.2 L16.6,17.4 L18.1,15.2 C18.8,16 19.6,16.7 20.6,17.2 C22.3,18 24.1,18.1 25.9,17.4 C29.4,16.1 31.2,12.1 29.9,8.5 C29.6,7.9 29.3,7.3 28.9,6.8" id="Fill-9" fill="#0A0A08"></path>
            <path d="M9.5,13.1 C8.3,13.1 7.3,12.1 7.3,10.9 C7.3,9.7 8.3,8.7 9.5,8.7 C10.7,8.7 11.7,9.7 11.7,10.9 C11.8,12.1 10.8,13.1 9.5,13.1 M9.5,7.4 C7.6,7.4 6.1,8.9 6.1,10.8 C6.1,12.7 7.6,14.2 9.5,14.2 C11.4,14.2 12.9,12.7 12.9,10.8 C13,9 11.4,7.4 9.5,7.4" id="Fill-10" fill="#0A0A08"></path>
            <path d="M23.4,13.1 C22.2,13.1 21.2,12.1 21.2,10.9 C21.2,9.7 22.2,8.7 23.4,8.7 C24.6,8.7 25.6,9.7 25.6,10.9 C25.6,12.1 24.6,13.1 23.4,13.1 M23.4,7.4 C21.5,7.4 20,8.9 20,10.8 C20,12.7 21.5,14.2 23.4,14.2 C25.3,14.2 26.8,12.7 26.8,10.8 C26.8,9 25.3,7.4 23.4,7.4" id="Fill-11" fill="#0A0A08"></path>
            <path d="M43.5,3.5 C47.642,3.5 51,6.858 51,11 C51,15.142 47.642,18.5 43.5,18.5 C39.358,18.5 36,15.142 36,11 C36,6.858 39.358,3.5 43.5,3.5" id="Fill-12" fill="#FFFFFF"></path>
            <path d="M60.4,3.5 C64.542,3.5 67.9,6.858 67.9,11 C67.9,15.142 64.542,18.5 60.4,18.5 C56.258,18.5 52.9,15.142 52.9,11 C52.9,6.858 56.258,3.5 60.4,3.5" id="Fill-13" fill="#FFFFFF"></path>
            <path d="M76.5,3.5 C80.642,3.5 84,6.858 84,11 C84,15.142 80.642,18.5 76.5,18.5 C72.358,18.5 69,15.142 69,11 C69,6.858 72.358,3.5 76.5,3.5" id="Fill-14" fill="#FFFFFF"></path>
            <path d="M93,3.5 C97.142,3.5 100.5,6.858 100.5,11 C100.5,15.142 97.142,18.5 93,18.5 C88.858,18.5 85.5,15.142 85.5,11 C85.5,6.858 88.858,3.5 93,3.5" id="Fill-15" fill="#FFFFFF"></path>
            <path d="M109.9,3.5 C114.042,3.5 117.4,6.858 117.4,11 C117.4,15.142 114.042,18.5 109.9,18.5 C105.758,18.5 102.4,15.142 102.4,11 C102.4,6.858 105.758,3.5 109.9,3.5" id="Fill-16" fill="#FFFFFF"></path>
            <g id="Group-20" transform="translate(85.000000, 2.000000)">
                <mask id="mask-2" fill="white">
                    <use xlink:href="#path-1"></use>
                </mask>
                <g id="Clip-18"></g>
                <path d="M5.6,14.9 C4,14.2 2.8,12.8 2.2,11.2 C1.6,9.5 1.7,7.7 2.4,6.1 C3.1,4.5 4.5,3.3 6.1,2.7 C9.5,1.4 13.3,3.2 14.6,6.6 C15.9,10 14.1,13.8 10.7,15.1 C9,15.7 7.2,15.6 5.6,14.9 L5.6,14.9 Z M5.5,1.1 C3.4,1.9 1.8,3.4 0.8,5.4 C0.3,6.5 0,7.7 0,8.9 C0,9.9 0.2,10.8 0.5,11.8 C1.3,13.9 2.8,15.5 4.8,16.4 C6.8,17.3 9.1,17.4 11.1,16.7 C15.4,15.1 17.6,10.3 16,6.1 C14.6,1.7 9.8,-0.5 5.5,1.1 L5.5,1.1 Z" id="Fill-17" fill="#5D9A50" mask="url(#mask-2)"></path>
                <path d="M22.2,14.9 C20.6,14.2 19.4,12.8 18.8,11.2 C18.2,9.5 18.3,7.7 19,6.1 C19.7,4.5 21.1,3.3 22.7,2.7 C26.1,1.4 29.9,3.2 31.2,6.6 C32.5,10 30.7,13.8 27.3,15.1 C25.6,15.7 23.8,15.6 22.2,14.9 L22.2,14.9 Z M22.1,1.1 C20,1.9 18.4,3.4 17.4,5.4 C16.9,6.5 16.6,7.7 16.6,8.9 C16.6,9.9 16.8,10.8 17.1,11.8 C17.9,13.9 19.4,15.5 21.4,16.4 C23.4,17.3 25.7,17.4 27.7,16.7 C32,15.1 34.2,10.3 32.6,6.1 C31.1,1.7 26.4,-0.5 22.1,1.1 L22.1,1.1 Z" id="Fill-19" fill="#5D9A50" mask="url(#mask-2)"></path>
            </g>
            <path d="M57.6,16.9 C56,16.2 54.8,14.8 54.2,13.2 C53.6,11.5 53.7,9.7 54.4,8.1 C55.1,6.5 56.5,5.3 58.1,4.7 C61.5,3.4 65.3,5.2 66.6,8.6 C67.9,12 66.1,15.8 62.7,17.1 C61,17.7 59.2,17.6 57.6,16.9 L57.6,16.9 Z M57.5,3.1 C55.4,3.9 53.8,5.4 52.8,7.4 C52.3,8.5 52,9.7 52,10.9 C52,11.9 52.2,12.8 52.5,13.8 C53.3,15.9 54.8,17.5 56.8,18.4 C58.8,19.3 61.1,19.4 63.1,18.7 C67.4,17.1 69.6,12.3 68,8.1 C66.5,3.7 61.7,1.5 57.5,3.1 L57.5,3.1 Z" id="Fill-21" fill="#5D9A50"></path>
            <path d="M37.2,10.8 C37.2,7.2 40.2,4.2 43.8,4.2 C47.4,4.2 50.4,7.2 50.4,10.8 C50.4,14.4 47.4,17.4 43.8,17.4 C40.2,17.4 37.2,14.5 37.2,10.8 M35.6,10.8 C35.6,15.4 39.3,19.1 43.9,19.1 C48.5,19.1 52.2,15.4 52.2,10.8 C52.2,6.2 48.5,2.5 43.9,2.5 C39.3,2.6 35.6,6.3 35.6,10.8" id="Fill-22" fill="#5D9A50"></path>
            <path d="M39.6,10.8 C39.6,13.1 41.4,14.9 43.7,14.9 C46,14.9 47.8,13.1 47.8,10.8 C47.8,8.5 46,6.7 43.7,6.7 C41.5,6.7 39.6,8.5 39.6,10.8" id="Fill-23" fill="#5D9A50"></path>
            <path d="M56.2,10.8 C56.2,13.1 58,14.9 60.3,14.9 C62.6,14.9 64.4,13.1 64.4,10.8 C64.4,8.5 62.6,6.7 60.3,6.7 C58.1,6.7 56.2,8.5 56.2,10.8" id="Fill-24" fill="#5D9A50"></path>
            <path d="M70.3,10.8 C70.3,7.2 73.3,4.2 76.9,4.2 C80.5,4.2 83.5,7.2 83.5,10.8 C83.5,14.4 80.5,17.4 76.9,17.4 C73.3,17.4 70.3,14.5 70.3,10.8 M68.6,10.8 C68.6,15.4 72.3,19.1 76.9,19.1 C81.5,19.1 85.2,15.4 85.2,10.8 C85.2,6.2 81.5,2.5 76.9,2.5 C72.3,2.6 68.6,6.3 68.6,10.8" id="Fill-25" fill="#5D9A50"></path>
            <path d="M72.7,10.8 C72.7,13.1 74.5,14.9 76.8,14.9 C79.1,14.9 80.9,13.1 80.9,10.8 C80.9,8.5 79.1,6.7 76.8,6.7 C74.5,6.7 72.7,8.5 72.7,10.8" id="Fill-26" fill="#5D9A50"></path>
            <path d="M89.3,10.9 C89.3,8.6 91.1,6.8 93.4,6.8 L93.4,15 C91.1,15 89.3,13.1 89.3,10.9" id="Fill-27" fill="#5D9A50"></path>
        </g>
    </g>
</svg>
